!!!id: EG024
!!!page: 58-60
!!!COM: Anonymous
!!!LYR: Anonymous
!!!PTL@@FR: Chansons Populaires du Canada
!!!OTL@@FR: Va, va, va, p'tit bonnet, grand bonnet
!!!PUB: G. E. Desbarats
!!!YEM:
!!!PDT: 1865
!!!SMA:
!!!OMD:
!!!AGN-Laforte:
!!!AGN-type:
!!!AGN-rime:
**kern
*clefG2
*k[]
*C:
*M2/4
*
*
!LO:TX:a:i:t=Voix seule, puis la reprise en chœur.
8r
=1
8cc
8dd
8dd
16cc
16b
=2
8a
16b/
16g
8cc
8r
!!LO:PB:g=original
=3
8cc
8dd
8dd
16cc
16b
=4
8a\
8b
8cc
!LO:TX:a:B:t=FIN.
=:|!|:
16r
!LO:TX:a:i:t=Voix seule, la reprise en chœur.
16g
=5
8cc
8dd
8dd
8cc
!!LO:PB:g=original
=6
8a
8b
8cc
8r
=7
8cc
8dd
8dd
16cc
16b
=8
8a\
8b
8cc
=:|
16r
16g
!!LO:PB:g=original
=9
8cc
8dd
8dd
8ee
=10
8cc
8ee
8dd
16ee
16dd
=11
8cc
16dd
16ee
8dd
16ee
16dd
!!LO:PB:g=original
=12
8cc
8ee
8dd
!LO:TX:b:B:t=D.C.
==||
*
*
==|
!!!RWG: First note of m.6 unclear in original, presumed A for consistency
*-
